.local/share/icons/Gruvbox-Plus-Dark/panel/22/uget-tray-downloading.svg

<svg width="22" height="22" version="1.1" xmlns="http://www.w3.org/2000/svg">
  <defs>
    <style id="current-color-scheme" type="text/css">.ColorScheme-Text { color:#ebdbb2; } .ColorScheme-Highlight { color:#458588; } .ColorScheme-NeutralText { color:#fe8019; } .ColorScheme-PositiveText { color:#689d6a; } .ColorScheme-NegativeText { color:#fb4934; }</style>
  </defs>
  <path class="ColorScheme-Text" d="m19 10h-4v2h2l-4 5-4-5h2v-6h4v2h4v-2s0-3-3-3h-6s-3 0-3 3v7h-2v-6h-2v6c0 2 2 2 2 2h2v1c0 3 3 3 3 3h6c3 0 3-3 3-3" fill="currentColor"/>
  <path class="ColorScheme-Highlight" d="m12 7v6h-0.918l1.918 2.398 1.918-2.398h-0.918v-6z" fill="currentColor"/>
</svg>

<svg xmlns="http://www.w3.org/2000/svg" width="22" height="22" version="1.1">
 <defs>
  <style id="current-color-scheme" type="text/css">
   .ColorScheme-Text { color:#ebdbb2; } .ColorScheme-Highlight { color:#458588; }
  </style>
 </defs>
 <path style="fill:currentColor" class="ColorScheme-Text" d="m 19,10 h -4 v 2 h 2 l -4,5 -4,-5 h 2 V 6 h 4 v 2.0000001 h 4 V 6 C 19,6 19,3 16,3 H 10 C 10,3 7,3 7,6 v 1 6 H 5 V 7.0000001 H 3 V 13 c 0,2 2,2 2,2 h 2 v 1 c 0,3 3,3 3,3 h 6 c 3,0 3,-3 3,-3"/>
 <path style="fill:currentColor" class="ColorScheme-Highlight" d="m 12,7 v 6 H 11.082031 L 13,15.398438 14.917968,13 H 14 V 11 10 7 Z"/>
</svg>
